X:1
T:The Lord Will Provide
T:Phillip Phillips
T:The Lord Will Provide
T:Public Domain
T:Public Domain
C:Phillip Phillips
Z:Public Domain
%%score ( 1 2 ) ( 3 4 )
L:1/8
M:3/4
K:F
V:1 treble 
V:2 treble 
V:3 bass 
V:4 bass 
V:1
 C2 | [CF]2 [CF]2 [EG]2 | [FA]2 [FA]2 [EG]2 | [FA]2 [FA]2 [GB]2 | [Ac]4 [Fc]2 | [Fd]2 [Fd]2 [Fd]2 | %6
w: 1.~In|way or o-|ther the Lord|will pro- vide;|It may|not be my|
w: 2.~At|time or o-|ther the Lord|will pro- vide;|It may|not be my|
w: 3.~De-|then no long-|er; the Lord|will pro- vide;|And this|be the tok-|
w: 4.~March|then right bold-|ly; the sea|shall di- vide,|The path-|way made glor-|
 [Fd]2 [Fc]2 [FA]2 | [Gc]2 [Gc]2 [Fc]2 | [Ec]2 [GB]2 [EG]2 | [_EA]2 [DB]2 [Fc]2 | %10
w: way, It may|not be thy|way; And yet,|in His own|
w: time, It may|not be thy|time; And yet,|in His own|
w: en— No word|He hath spok-|en Was ev-|er yet brok-|
w: ious, With shout-|ings vic- tor-|ious We’ll join|in the chor-|
 [Fd]2 [Fc]2 (FG) | [FA]2 [FA]2 [EG]2 | F4 ||"^Refrain" F[FA] | [Ec]2 [Ec]2 [Ec]2 | [Fc]4 [FA]2 | %16
w: way, “The Lord *|pro- vide.” *|||||
w: time, “The Lord *|pro- vide.” *|||||
w: en: “The Lord *|pro- vide.” *|||||
w: us, “The Lord *|pro- vide.” *|||||
 [FB]2 [FB]2 [FB]2 | [EG]4 [EG][EG] | [FA]2 [FG]2 F2 | [Ec]4 (FG) | [FA]2 (AG) (FE) | [CF]4 |] %22
w: ||||||
w: ||||||
w: ||||||
w: ||||||
V:2
 C2 | x6 | x6 | x6 | x6 | x6 | x6 | x6 | x6 | x6 | x4 F2 | x6 | F4 || F x | x6 | x6 | x6 | x6 | %18
w: some||||||||||will||||||||
w: some||||||||||will||||||||
w: spond||||||||||will||||||||
w: on||||||||||will||||||||
 x4 F2 | x4 F2 | x2 C2 C2 | x4 |] %22
w: ||||
w: ||||
w: ||||
w: ||||
V:3
 [F,A,]2 | [F,A,]2 [F,A,]2 [C,C]2 | [F,C]2 [F,C]2 [C,C]2 | [F,C]2 [F,C]2 [F,C]2 | [F,F]4 [F,A,]2 | %5
w: ~|~ ~ ~|~ ~ ~|~ ~ ~|~ ~|
 [B,,B,]2 [B,,B,]2 [B,,B,]2 | [B,,B,]2 [F,A,]2 [F,C]2 | [E,C]2 [E,B,]2 [F,A,]2 | %8
w: ~ ~ ~|~ ~ ~|~ ~ ~|
 [C,G,]2 [C,C]2 [C,C]2 | [F,C]2 [F,B,]2 [F,A,]2 | [F,B,]2 [F,A,]2 ([A,,C][B,,D]) | %11
w: ~ ~ ~|~ ~ ~|~ ~ ~ *|
 [C,C]2 [C,C]2 [C,B,]2 | [F,A,]4 || [F,A,][F,A,] | [C,G,]2 [C,G,]2 [C,G,]2 | [F,A,]4 [F,C]2 | %16
w: ~ ~ ~|~|Then, we’ll|trust in the|Lord, And|
 [B,,D]2 [B,,D]2 [B,,D]2 | [C,C]4 [C,C][C,C] | [F,C]2 [F,B,]2 [F,A,]2 | [C,G,]4 ([A,,C][B,,D]) | %20
w: He will pro-|vide; Yes, we’ll|trust in the|Lord, And *|
 [C,C]2 (CB,) (A,G,) | [F,A,]4 |] %22
w: He will * pro- *||
V:4
 x2 | x6 | x6 | x6 | x6 | x6 | x6 | x6 | x6 | x6 | x6 | x6 | x4 || x2 | x6 | x6 | x6 | x6 | x6 | %19
w: |||||||||||||||||||
 x6 | x2 C,2 C,2 | x4 |] %22
w: |vide. *||

